X: 1
T: Tellings Hopsa
O: Denmark
R: hopsa
Z: John Chambers <jc@trillian.mit.edu>
M: 2/4
L: 1/8
K: G
D2 \
|: "G"B2 c/B/A | G2 D2 | B2 B2 | ed cB | "D7"A2 A2 |1 F2 D2 | A2 A2 fe dc \
                                                  :|2 f3 e | dc BA | "G"G4 :|
K: D
|: "D"ff ff | af ff | "A7"ge ee | "D"fd dd | ff ff | af ff | "A7"ge ee | "D"d4 :|
K: G
|: "G"d3 e | d2 B2 | b2 ag | "D7"f4 | A3 B | c2 A2 | fe dc | "G"B4 \
|  "G"d3 e | d2 B2 | "C"e3 f | e2 c2 | "D7"f3 e | dc BA | "G"G2 g2 | g4 :|
